X:1
T: Fran's Tiraluin
C:
R:Jig
Q:180
K:G
M:6/8
L:1/16
D2|G2A2B2 d6|e2d2B2 A6|G2A2B2 d2g2f2|e6 d2e2f2|g2e2d2 B4A2|e2d2B2 A4d2|e2g2B2 d2A2B2|G6 G4D2|
G2A2B2 d6|e2d2B2 A6|G2A2B2 d2g2f2|e6 d2e2f2|g2e2d2 B4A2|e2d2B2 A4d2|e2g2B2 d2A2B2|G6 g6|
a2e2f2 g6|d2A2B2 G4B2|d4d2 d2g2f2|e6 f4g2|a2e2a2 g2e2g2|e2d2B2 A4d2|e2g2B2 d2A2B2|G6 f4g2|
a2e2a2 g2e2g2|e2d2B2 G4B2|d2e2g2 a2e2g2|a6 g4f2|e2B2d2 B2e2d2|B2A2G2 B4d2|e2g2B2 d2A2B2|G6 G4||
